X:1
T:Title
%%score [ ( 1 2 ) ( 3 4 ) ]
L:1/8
Q:1/4=120
M:4/4
K:D
V:1 treble nm=" " snm=" "
V:2 treble 
V:3 bass nm="Midi_74"
V:4 bass 
V:1
"^Sabine Baring-Gould\n1834-1924" A2 A2 A2 A2 |"^Onward, Christian soldiers" (A3 B) A4 | %2
w: On- ward, Chri- stian|sol- * diers,|
w: At the sign of|tri * umph|
w: ~Crowns and thrones may|per * ish,|
w: On- ward, then, you|peo * ple,|
 E2 E2 D2 E2 |"^Arthur Sullivan\n1842-1900" F8 || D2 F2 A2 d2 | d4 c4 | B2 B2 F2 ^G2 | A8 || %8
w: mar- ching as to|war,|with the Cross of|Je- sus|go- ing on be-|fore.|
w: Sa- tan's le- gions|flee.|On then, Christ- ian|sol- diers,|on to vic- to-|ry!|
w: king- doms rise and|wane,|but the church of|Je- sus|con- stant will re-|main.|
w: join our hap- py|throng;|blend with ours your|voi- ces|in the tri- umph|song.|
 E2 E2 A2 E2 | (F3 G) F4 | A2 A2 d2 A2 | B8 || B2 A2 G2 A2 | (B2 A2) (G2 A2) | B2 A2 G2 F2 | E8 || %16
w: Christ the roy- al|ma * ster|leads a- gainst the|foe;|for- ward in- to|bat * tle, *|see, his ban- ners|go:|
w: Hell's foun- da- tions|qui * ver|at the shout of|praise;|lift your hearts and|voi * ces, *|loud your an- them|raise:|
w: Gates of hell can|ne * ver|'gainst that Church pre-|vail;|we have Christ's own|pro * mise, *|and that can- not|fail:|
w: "Glo- ry, laud and|ho * nour|un- to Christ the|king!"|This through count- less|a * ges, *|we with an- gels|sing:|
 D2 D2 D2 D2 | (D2 CB,) (C2 D2) | E2 E2 E2 DE | F8 || A2 A2 d2 c2 | d4 A4 | G2 F2 E3 D | D8 |] %24
w: On- ward, Christ- ian|sol * * diers, *|mar- ching as to *|war,|with the Cross of|Je- sus|go- ing on be-|fore.|
w: ||||||||
w: ||||||||
w: ||||||||
V:2
 A2 A2 A2 A2 | (A3 B) A4 | C2 C2 B,2 C2 | D8 || D2 D2 D2 D2 | E4 E4 | D2 D2 D2 D2 | C8 || %8
 C2 C2 E2 C2 | (D3 E) D4 | D2 D2 D2 D2 | D8 || D2 D2 D2 D2 | D4 D4 | D2 D2 E2 D2 | C8 || %16
 A,2 A,2 A,2 A,2 | A,4 A,4 | A,2 A,2 A,2 A,2 | A,8 || F2 F2 G2 G2 | F4 D4 | D2 D2 C3 D | D8 |] %24
V:3
 A,2 A,2 A,2 A,2 | (A,3 B,) A,4 | A,2 A,2 A,2 A,2 | A,8 || A,2 A,2 A,2 A,2 | (A,3 B,) A,4 | %6
w: ||||||
 ^G,2 G,2 A,2 B,2 | A,8 || A,2 A,2 A,2 A,2 | A,4 A,4 | F,2 F,2 A,2 F,2 | G,8 || G,2 F,2 G,2 F,2 | %13
w: |||||||
 (G,2 F,2) (G,2 F,2) | G,2 F,2 E,2 E,2 | A,8 || F,2 F,2 F,2 F,2 | G,4 G,4 | G,2 G,2 G,2 G,2 | %19
w: ||||||
 F,2 (D,2 F,2) A,2 ||"^This edition produced by Andrew Sims 2013" D4 A,4 | A,4 A,4 | %22
w: war, with * the|Cross of||
 B,3 A, G,3 F, | F,8 |] %24
w: ||
V:4
 A,2 A,2 A,2 A,2 | (A,3 B,) A,4 | G,2 G,2 F,2 E,2 | D,8 || F,2 F,2 F,2 F,2 | E,4 E,4 | %6
 E,2 E,2 E,2 E,2 | A,,8 || A,,2 A,,2 C,2 A,,2 | D,4 D,4 | D,2 D,2 F,2 D,2 | G,8 || %12
 G,2 D,2 B,,2 D,2 | (G,2 D,2) (B,,2 D,2) | G,,2 G,,2 G,,2 G,,2 | A,,8 || D,2 A,,2 D,2 A,,2 | %17
 (E,2 A,,2) (E,2 A,,2) | C,2 A,,2 C,2 A,,2 | D,8 || D,2 D,2 E,2 E,2 | F,4 F,,4 | %22
 G,,2 E,,2 A,,3 A,, | [D,,D,]8 |] %24

